ru/template-builder/_images/buttons/view-example.svg

<svg width="168" height="36" viewBox="0 0 168 36" fill="none" xmlns="http://www.w3.org/2000/svg">
<path d="M0 8C0 3.58172 3.58172 0 8 0H160C164.418 0 168 3.58172 168 8V28C168 32.4183 164.418 36 160 36H8C3.58172 36 0 32.4183 0 28V8Z" fill="#E6E6E6"/>
<path d="M17.5526 12.962H25.4066V23H23.6986V14.432H19.2466V23H17.5526V12.962ZM30.5288 23.14C30.0154 23.14 29.5394 23.056 29.1008 22.888C28.6621 22.72 28.2794 22.4773 27.9528 22.16C27.6354 21.8333 27.3834 21.4367 27.1968 20.97C27.0194 20.5033 26.9307 19.9667 26.9307 19.36C26.9307 18.7533 27.0194 18.2167 27.1968 17.75C27.3834 17.2833 27.6354 16.8913 27.9528 16.574C28.2794 16.2473 28.6621 16.0047 29.1008 15.846C29.5394 15.678 30.0154 15.594 30.5288 15.594C31.0421 15.594 31.5181 15.678 31.9568 15.846C32.3954 16.0047 32.7781 16.2473 33.1048 16.574C33.4314 16.8913 33.6881 17.2833 33.8748 17.75C34.0614 18.2167 34.1548 18.7533 34.1548 19.36C34.1548 19.9667 34.0614 20.5033 33.8748 20.97C33.6881 21.4367 33.4314 21.8333 33.1048 22.16C32.7781 22.4773 32.3954 22.72 31.9568 22.888C31.5181 23.056 31.0421 23.14 30.5288 23.14ZM30.5288 21.782C31.0888 21.782 31.5508 21.586 31.9148 21.194C32.2881 20.802 32.4748 20.1907 32.4748 19.36C32.4748 18.5387 32.2881 17.932 31.9148 17.54C31.5508 17.1387 31.0888 16.938 30.5288 16.938C29.9781 16.938 29.5161 17.1387 29.1428 17.54C28.7788 17.932 28.5968 18.5387 28.5968 19.36C28.5968 20.1907 28.7788 20.802 29.1428 21.194C29.5161 21.586 29.9781 21.782 30.5288 21.782ZM38.8595 23.14C38.2715 23.14 37.7442 23.056 37.2775 22.888C36.8108 22.7107 36.4142 22.4633 36.0875 22.146C35.7608 21.8193 35.5088 21.4227 35.3315 20.956C35.1542 20.4893 35.0655 19.9573 35.0655 19.36C35.0655 18.772 35.1542 18.2447 35.3315 17.778C35.5088 17.3113 35.7608 16.9193 36.0875 16.602C36.4142 16.2753 36.8155 16.028 37.2915 15.86C37.7675 15.6827 38.2995 15.594 38.8875 15.594C39.3915 15.594 39.8302 15.65 40.2035 15.762C40.5862 15.874 40.8895 16.014 41.1135 16.182V17.526C40.8242 17.3393 40.5068 17.1947 40.1615 17.092C39.8255 16.9893 39.4335 16.938 38.9855 16.938C37.4828 16.938 36.7315 17.7453 36.7315 19.36C36.7315 20.9747 37.4688 21.782 38.9435 21.782C39.4195 21.782 39.8255 21.7307 40.1615 21.628C40.5068 21.516 40.8242 21.376 41.1135 21.208V22.552C40.8708 22.7107 40.5675 22.8507 40.2035 22.972C39.8395 23.084 39.3915 23.14 38.8595 23.14ZM49.4272 17.736L47.2852 22.3H46.0952L44.0792 17.694V23H42.6092V15.734H44.8352L46.8232 20.242L48.9232 15.734H51.0512V23H49.4272V17.736ZM56.0268 23.14C55.5135 23.14 55.0375 23.056 54.5988 22.888C54.1601 22.72 53.7775 22.4773 53.4508 22.16C53.1335 21.8333 52.8815 21.4367 52.6948 20.97C52.5175 20.5033 52.4288 19.9667 52.4288 19.36C52.4288 18.7533 52.5175 18.2167 52.6948 17.75C52.8815 17.2833 53.1335 16.8913 53.4508 16.574C53.7775 16.2473 54.1601 16.0047 54.5988 15.846C55.0375 15.678 55.5135 15.594 56.0268 15.594C56.5401 15.594 57.0161 15.678 57.4548 15.846C57.8935 16.0047 58.2761 16.2473 58.6028 16.574C58.9295 16.8913 59.1861 17.2833 59.3728 17.75C59.5595 18.2167 59.6528 18.7533 59.6528 19.36C59.6528 19.9667 59.5595 20.5033 59.3728 20.97C59.1861 21.4367 58.9295 21.8333 58.6028 22.16C58.2761 22.4773 57.8935 22.72 57.4548 22.888C57.0161 23.056 56.5401 23.14 56.0268 23.14ZM56.0268 21.782C56.5868 21.782 57.0488 21.586 57.4128 21.194C57.7861 20.802 57.9728 20.1907 57.9728 19.36C57.9728 18.5387 57.7861 17.932 57.4128 17.54C57.0488 17.1387 56.5868 16.938 56.0268 16.938C55.4761 16.938 55.0141 17.1387 54.6408 17.54C54.2768 17.932 54.0948 18.5387 54.0948 19.36C54.0948 20.1907 54.2768 20.802 54.6408 21.194C55.0141 21.586 55.4761 21.782 56.0268 21.782ZM64.0818 17.05V23H62.4578V17.05H60.2598V15.734H66.3218V17.05H64.0818ZM71.5644 23.14C71.0137 23.14 70.5377 23.0187 70.1364 22.776C69.7444 22.524 69.4271 22.188 69.1844 21.768V25.478H67.5604V15.734H69.0444L69.1564 17.022C69.3991 16.5833 69.7211 16.238 70.1224 15.986C70.5237 15.7247 71.0137 15.594 71.5924 15.594C72.0217 15.594 72.4277 15.6733 72.8104 15.832C73.2024 15.9813 73.5431 16.2147 73.8324 16.532C74.1217 16.84 74.3504 17.232 74.5184 17.708C74.6957 18.1747 74.7844 18.7253 74.7844 19.36C74.7844 20.004 74.6957 20.564 74.5184 21.04C74.3504 21.5067 74.1171 21.8987 73.8184 22.216C73.5291 22.524 73.1884 22.7573 72.7964 22.916C72.4044 23.0653 71.9937 23.14 71.5644 23.14ZM71.1724 21.782C71.7511 21.782 72.2177 21.586 72.5724 21.194C72.9364 20.7927 73.1184 20.1813 73.1184 19.36C73.1184 18.548 72.9364 17.9413 72.5724 17.54C72.2177 17.1387 71.7557 16.938 71.1864 16.938C70.8971 16.938 70.6311 16.9893 70.3884 17.092C70.1457 17.1853 69.9311 17.3347 69.7444 17.54C69.5671 17.7453 69.4271 18.002 69.3244 18.31C69.2217 18.6087 69.1704 18.9587 69.1704 19.36C69.1704 19.7707 69.2217 20.13 69.3244 20.438C69.4271 20.7367 69.5671 20.9887 69.7444 21.194C69.9217 21.39 70.1317 21.5393 70.3744 21.642C70.6264 21.7353 70.8924 21.782 71.1724 21.782ZM82.236 22.468C82.1333 22.5333 82.0073 22.608 81.858 22.692C81.7087 22.7667 81.5313 22.8367 81.326 22.902C81.1207 22.9673 80.8827 23.0233 80.612 23.07C80.3413 23.1167 80.0333 23.14 79.688 23.14C78.3533 23.14 77.3547 22.8087 76.692 22.146C76.0387 21.4833 75.712 20.5547 75.712 19.36C75.712 18.772 75.8007 18.2447 75.978 17.778C76.1553 17.3113 76.4027 16.9193 76.72 16.602C77.0373 16.2753 77.4153 16.028 77.854 15.86C78.2927 15.6827 78.7733 15.594 79.296 15.594C79.8373 15.594 80.3227 15.6827 80.752 15.86C81.1907 16.0373 81.55 16.3033 81.83 16.658C82.11 17.0127 82.3013 17.4513 82.404 17.974C82.516 18.4967 82.5207 19.108 82.418 19.808H77.392C77.4573 20.4707 77.6767 20.97 78.05 21.306C78.4233 21.6327 79.0067 21.796 79.8 21.796C80.3787 21.796 80.8593 21.726 81.242 21.586C81.634 21.4367 81.9653 21.2827 82.236 21.124V22.468ZM79.296 16.882C78.82 16.882 78.4187 17.0267 78.092 17.316C77.7653 17.6053 77.5507 18.0347 77.448 18.604H80.864C80.8827 18.016 80.752 17.582 80.472 17.302C80.192 17.022 79.8 16.882 79.296 16.882ZM87.0779 17.05V23H85.4539V17.05H83.2559V15.734H89.3179V17.05H87.0779ZM96.4085 20.494C96.4085 20.914 96.3292 21.2827 96.1705 21.6C96.0212 21.9173 95.8112 22.1787 95.5405 22.384C95.2698 22.5893 94.9478 22.7433 94.5745 22.846C94.2012 22.9487 93.7905 23 93.3425 23H90.5425V15.734H92.1665V18.086H93.3845C94.3365 18.086 95.0785 18.282 95.6105 18.674C96.1425 19.066 96.4085 19.6727 96.4085 20.494ZM92.1665 19.374V21.726H93.2165C93.6645 21.726 94.0285 21.6373 94.3085 21.46C94.5885 21.2733 94.7285 20.97 94.7285 20.55C94.7285 20.13 94.6025 19.8313 94.3505 19.654C94.0985 19.4673 93.7345 19.374 93.2585 19.374H92.1665ZM100.81 15.734H106.984V23H105.36V17.05H102.434V23H100.81V15.734ZM112.812 23.14C112.262 23.14 111.786 23.0187 111.384 22.776C110.992 22.524 110.675 22.188 110.432 21.768V25.478H108.808V15.734H110.292L110.404 17.022C110.647 16.5833 110.969 16.238 111.37 15.986C111.772 15.7247 112.262 15.594 112.84 15.594C113.27 15.594 113.676 15.6733 114.058 15.832C114.45 15.9813 114.791 16.2147 115.08 16.532C115.37 16.84 115.598 17.232 115.766 17.708C115.944 18.1747 116.032 18.7253 116.032 19.36C116.032 20.004 115.944 20.564 115.766 21.04C115.598 21.5067 115.365 21.8987 115.066 22.216C114.777 22.524 114.436 22.7573 114.044 22.916C113.652 23.0653 113.242 23.14 112.812 23.14ZM112.42 21.782C112.999 21.782 113.466 21.586 113.82 21.194C114.184 20.7927 114.366 20.1813 114.366 19.36C114.366 18.548 114.184 17.9413 113.82 17.54C113.466 17.1387 113.004 16.938 112.434 16.938C112.145 16.938 111.879 16.9893 111.636 17.092C111.394 17.1853 111.179 17.3347 110.992 17.54C110.815 17.7453 110.675 18.002 110.572 18.31C110.47 18.6087 110.418 18.9587 110.418 19.36C110.418 19.7707 110.47 20.13 110.572 20.438C110.675 20.7367 110.815 20.9887 110.992 21.194C111.17 21.39 111.38 21.5393 111.622 21.642C111.874 21.7353 112.14 21.782 112.42 21.782ZM119.018 20.802L122.378 15.734H123.974V23H122.364V17.96L119.032 23H117.408V15.734H119.018V20.802ZM132.621 17.736L130.479 22.3H129.289L127.273 17.694V23H125.803V15.734H128.029L130.017 20.242L132.117 15.734H134.245V23H132.621V17.736ZM142.146 22.468C142.043 22.5333 141.917 22.608 141.768 22.692C141.619 22.7667 141.441 22.8367 141.236 22.902C141.031 22.9673 140.793 23.0233 140.522 23.07C140.251 23.1167 139.943 23.14 139.598 23.14C138.263 23.14 137.265 22.8087 136.602 22.146C135.949 21.4833 135.622 20.5547 135.622 19.36C135.622 18.772 135.711 18.2447 135.888 17.778C136.065 17.3113 136.313 16.9193 136.63 16.602C136.947 16.2753 137.325 16.028 137.764 15.86C138.203 15.6827 138.683 15.594 139.206 15.594C139.747 15.594 140.233 15.6827 140.662 15.86C141.101 16.0373 141.46 16.3033 141.74 16.658C142.02 17.0127 142.211 17.4513 142.314 17.974C142.426 18.4967 142.431 19.108 142.328 19.808H137.302C137.367 20.4707 137.587 20.97 137.96 21.306C138.333 21.6327 138.917 21.796 139.71 21.796C140.289 21.796 140.769 21.726 141.152 21.586C141.544 21.4367 141.875 21.2827 142.146 21.124V22.468ZM139.206 16.882C138.73 16.882 138.329 17.0267 138.002 17.316C137.675 17.6053 137.461 18.0347 137.358 18.604H140.774C140.793 18.016 140.662 17.582 140.382 17.302C140.102 17.022 139.71 16.882 139.206 16.882ZM147.84 23.14C147.289 23.14 146.813 23.0187 146.412 22.776C146.02 22.524 145.702 22.188 145.46 21.768V25.478H143.836V15.734H145.32L145.432 17.022C145.674 16.5833 145.996 16.238 146.398 15.986C146.799 15.7247 147.289 15.594 147.868 15.594C148.297 15.594 148.703 15.6733 149.086 15.832C149.478 15.9813 149.818 16.2147 150.108 16.532C150.397 16.84 150.626 17.232 150.794 17.708C150.971 18.1747 151.06 18.7253 151.06 19.36C151.06 20.004 150.971 20.564 150.794 21.04C150.626 21.5067 150.392 21.8987 150.094 22.216C149.804 22.524 149.464 22.7573 149.072 22.916C148.68 23.0653 148.269 23.14 147.84 23.14ZM147.448 21.782C148.026 21.782 148.493 21.586 148.848 21.194C149.212 20.7927 149.394 20.1813 149.394 19.36C149.394 18.548 149.212 17.9413 148.848 17.54C148.493 17.1387 148.031 16.938 147.462 16.938C147.172 16.938 146.906 16.9893 146.664 17.092C146.421 17.1853 146.206 17.3347 146.02 17.54C145.842 17.7453 145.702 18.002 145.6 18.31C145.497 18.6087 145.446 18.9587 145.446 19.36C145.446 19.7707 145.497 20.13 145.6 20.438C145.702 20.7367 145.842 20.9887 146.02 21.194C146.197 21.39 146.407 21.5393 146.65 21.642C146.902 21.7353 147.168 21.782 147.448 21.782Z" fill="black"/>
</svg>

<svg xmlns="http://www.w3.org/2000/svg" width="168" height="36" fill="none"><path fill="#E6E6E6" d="M0 8a8 8 0 0 1 8-8h152a8 8 0 0 1 8 8v20a8 8 0 0 1-8 8H8a8 8 0 0 1-8-8V8Z"/><path fill="#000" d="M17.553 12.962h7.854V23h-1.708v-8.568h-4.452V23h-1.694V12.962ZM30.529 23.14a3.96 3.96 0 0 1-1.428-.252 3.344 3.344 0 0 1-1.148-.728 3.605 3.605 0 0 1-.756-1.19c-.178-.467-.266-1.003-.266-1.61 0-.607.088-1.143.266-1.61.186-.467.438-.859.756-1.176.326-.327.71-.57 1.148-.728a3.96 3.96 0 0 1 1.428-.252c.513 0 .99.084 1.428.252a3.09 3.09 0 0 1 1.148.728c.326.317.583.71.77 1.176.186.467.28 1.003.28 1.61 0 .607-.094 1.143-.28 1.61a3.495 3.495 0 0 1-.77 1.19c-.327.317-.71.56-1.148.728a3.96 3.96 0 0 1-1.428.252Zm0-1.358c.56 0 1.022-.196 1.386-.588.373-.392.56-1.003.56-1.834 0-.821-.187-1.428-.56-1.82-.364-.401-.826-.602-1.386-.602-.55 0-1.013.2-1.386.602-.364.392-.546.999-.546 1.82 0 .83.182 1.442.546 1.834.373.392.835.588 1.386.588Zm8.33 1.358a4.65 4.65 0 0 1-1.581-.252 3.433 3.433 0 0 1-1.19-.742 3.33 3.33 0 0 1-.757-1.19c-.177-.467-.266-.999-.266-1.596 0-.588.09-1.115.267-1.582a3.162 3.162 0 0 1 1.96-1.918 4.544 4.544 0 0 1 1.596-.266 4.6 4.6 0 0 1 1.316.168c.382.112.685.252.91.42v1.344a3.68 3.68 0 0 0-.953-.434 4.036 4.036 0 0 0-1.175-.154c-1.503 0-2.255.807-2.255 2.422 0 1.615.738 2.422 2.212 2.422.477 0 .883-.051 1.218-.154a4.9 4.9 0 0 0 .953-.42v1.344a3.945 3.945 0 0 1-.91.42c-.364.112-.813.168-1.345.168Zm10.568-5.404L47.285 22.3h-1.19l-2.016-4.606V23h-1.47v-7.266h2.226l1.988 4.508 2.1-4.508h2.128V23h-1.624v-5.264Zm6.6 5.404a3.96 3.96 0 0 1-1.428-.252 3.345 3.345 0 0 1-1.148-.728 3.608 3.608 0 0 1-.756-1.19c-.178-.467-.266-1.003-.266-1.61 0-.607.088-1.143.266-1.61a3.45 3.45 0 0 1 .756-1.176 3.09 3.09 0 0 1 1.148-.728 3.96 3.96 0 0 1 1.428-.252c.513 0 .99.084 1.428.252a3.09 3.09 0 0 1 1.148.728c.326.317.583.71.77 1.176.187.467.28 1.003.28 1.61 0 .607-.093 1.143-.28 1.61a3.494 3.494 0 0 1-.77 1.19c-.327.317-.71.56-1.148.728a3.96 3.96 0 0 1-1.428.252Zm0-1.358c.56 0 1.022-.196 1.386-.588.373-.392.56-1.003.56-1.834 0-.821-.187-1.428-.56-1.82-.364-.401-.826-.602-1.386-.602-.55 0-1.013.2-1.386.602-.364.392-.546.999-.546 1.82 0 .83.182 1.442.546 1.834.373.392.835.588 1.386.588Zm8.055-4.732V23h-1.624v-5.95H60.26v-1.316h6.062v1.316h-2.24Zm7.482 6.09c-.55 0-1.026-.121-1.428-.364a2.904 2.904 0 0 1-.952-1.008v3.71H67.56v-9.744h1.484l.112 1.288c.243-.439.565-.784.966-1.036.402-.261.892-.392 1.47-.392.43 0 .836.08 1.218.238.392.15.733.383 1.022.7.29.308.518.7.686 1.176.178.467.266 1.017.266 1.652 0 .644-.088 1.204-.266 1.68a3.34 3.34 0 0 1-.7 1.176c-.289.308-.63.541-1.022.7-.392.15-.802.224-1.232.224Zm-.392-1.358c.58 0 1.046-.196 1.4-.588.364-.401.546-1.013.546-1.834 0-.812-.182-1.419-.546-1.82-.354-.401-.816-.602-1.386-.602-.289 0-.555.051-.798.154a1.678 1.678 0 0 0-.644.448 2.253 2.253 0 0 0-.42.77 3.232 3.232 0 0 0-.154 1.05c0 .41.052.77.154 1.078.103.299.243.55.42.756.178.196.388.345.63.448.252.093.518.14.798.14Zm11.064.686c-.103.065-.229.14-.378.224-.15.075-.327.145-.532.21a5.407 5.407 0 0 1-1.638.238c-1.335 0-2.333-.331-2.996-.994-.653-.663-.98-1.591-.98-2.786 0-.588.089-1.115.266-1.582.177-.467.425-.859.742-1.176a3.11 3.11 0 0 1 1.134-.742c.439-.177.92-.266 1.442-.266.541 0 1.027.089 1.456.266.439.177.798.443 1.078.798.28.355.471.793.574 1.316.112.523.117 1.134.014 1.834h-5.026c.065.663.285 1.162.658 1.498.373.327.957.49 1.75.49.579 0 1.06-.07 1.442-.21a6.69 6.69 0 0 0 .994-.462v1.344Zm-2.94-5.586c-.476 0-.877.145-1.204.434-.327.29-.541.719-.644 1.288h3.416c.019-.588-.112-1.022-.392-1.302s-.672-.42-1.176-.42Zm7.782.168V23h-1.624v-5.95h-2.198v-1.316h6.062v1.316h-2.24Zm9.33 3.444c0 .42-.079.789-.237 1.106-.15.317-.36.579-.63.784-.271.205-.593.36-.966.462a4.637 4.637 0 0 1-1.233.154h-2.8v-7.266h1.624v2.352h1.219c.951 0 1.694.196 2.225.588.532.392.799.999.799 1.82Zm-4.242-1.12v2.352h1.05c.449 0 .813-.089 1.093-.266.28-.187.42-.49.42-.91 0-.42-.126-.719-.379-.896-.251-.187-.615-.28-1.091-.28h-1.093Zm8.644-3.64h6.174V23h-1.624v-5.95h-2.926V23h-1.624v-7.266Zm12.002 7.406c-.55 0-1.026-.121-1.428-.364a2.906 2.906 0 0 1-.952-1.008v3.71h-1.624v-9.744h1.484l.112 1.288c.243-.439.565-.784.966-1.036.402-.261.892-.392 1.47-.392.43 0 .836.08 1.218.238.392.15.733.383 1.022.7.29.308.518.7.686 1.176.178.467.266 1.017.266 1.652 0 .644-.088 1.204-.266 1.68a3.335 3.335 0 0 1-.7 1.176c-.289.308-.63.541-1.022.7a3.43 3.43 0 0 1-1.232.224Zm-.392-1.358c.579 0 1.046-.196 1.4-.588.364-.401.546-1.013.546-1.834 0-.812-.182-1.419-.546-1.82-.354-.401-.816-.602-1.386-.602a2.03 2.03 0 0 0-.798.154 1.686 1.686 0 0 0-.644.448 2.263 2.263 0 0 0-.42.77 3.251 3.251 0 0 0-.154 1.05c0 .41.052.77.154 1.078.103.299.243.55.42.756.178.196.388.345.63.448.252.093.518.14.798.14Zm6.598-.98 3.36-5.068h1.596V23h-1.61v-5.04L119.032 23h-1.624v-7.266h1.61v5.068Zm13.603-3.066-2.142 4.564h-1.19l-2.016-4.606V23h-1.47v-7.266h2.226l1.988 4.508 2.1-4.508h2.128V23h-1.624v-5.264Zm9.525 4.732a8.68 8.68 0 0 1-.378.224 3.711 3.711 0 0 1-.532.21 5.384 5.384 0 0 1-1.638.238c-1.335 0-2.333-.331-2.996-.994-.653-.663-.98-1.591-.98-2.786 0-.588.089-1.115.266-1.582.177-.467.425-.859.742-1.176a3.104 3.104 0 0 1 1.134-.742 3.813 3.813 0 0 1 1.442-.266c.541 0 1.027.089 1.456.266.439.177.798.443 1.078.798.28.355.471.793.574 1.316.112.523.117 1.134.014 1.834h-5.026c.065.663.285 1.162.658 1.498.373.327.957.49 1.75.49.579 0 1.059-.07 1.442-.21.392-.15.723-.303.994-.462v1.344Zm-2.94-5.586c-.476 0-.877.145-1.204.434-.327.29-.541.719-.644 1.288h3.416c.019-.588-.112-1.022-.392-1.302s-.672-.42-1.176-.42Zm8.634 6.258c-.551 0-1.027-.121-1.428-.364a2.897 2.897 0 0 1-.952-1.008v3.71h-1.624v-9.744h1.484l.112 1.288c.242-.439.564-.784.966-1.036.401-.261.891-.392 1.47-.392.429 0 .835.08 1.218.238.392.15.732.383 1.022.7.289.308.518.7.686 1.176.177.467.266 1.017.266 1.652 0 .644-.089 1.204-.266 1.68a3.35 3.35 0 0 1-.7 1.176c-.29.308-.63.541-1.022.7-.392.15-.803.224-1.232.224Zm-.392-1.358c.578 0 1.045-.196 1.4-.588.364-.401.546-1.013.546-1.834 0-.812-.182-1.419-.546-1.82-.355-.401-.817-.602-1.386-.602-.29 0-.556.051-.798.154a1.67 1.67 0 0 0-.644.448 2.23 2.23 0 0 0-.42.77 3.224 3.224 0 0 0-.154 1.05c0 .41.051.77.154 1.078.102.299.242.55.42.756.177.196.387.345.63.448.252.093.518.14.798.14Z"/></svg>
